!!!COA:	Josquin des Prez
!!!CDT:	~1450-1521/08/27
!!!COA2: Forestier
!!!OTL@@LAT:	Veni sancte spiritus
!!!AGN:	Motet
!!!SCT:	NJE 26.18
!!!SCA:	New Josquin Edition 26.18
!!!voices:	6
**kern	**kern	**kern	**kern	**kern	**kern
*staff6	*staff5	*staff4	*staff3	*staff2	*staff1
*Ivox	*Ivox	*Ivox	*Ivox	*Ivox	*Ivox
*I"Bassus	*I"Sextus	*I"Tenor	*I"Quintus	*I"Altus	*I"Superius
*I'B	*I'Sx	*I'T	*I'Q	*I'A	*I'S
*clefF4	*clefGv2	*clefGv2	*clefGv2	*clefGv2	*clefG2
*k[b-]	*k[b-]	*k[b-]	*k[b-]	*k[b-]	*k[b-]
*M3/1	*M3/1	*M3/1	*M3/1	*M3/1	*M3/1
*met(O)	*met(O)	*met(O)	*met(O)	*met(O)	*met(O)
=1-	=1-	=1-	=1-	=1-	=1-
!LO:TX:Z=10:t=Canon at the upper fifth (B-->T) for all but final measures	!	!	!	!	!
!	!	!	!LO:TX:Z=10:t=Canon at the upper fifth (Q-->S) for all but final measures	!	!
0.r	0.r	0.r	0F	0.r	0.r
.	.	.	1G	.	.
=2	=2	=2	=2	=2	=2
0F	0.r	0.r	0A	0.r	0.r
1G	.	.	2.B-\	.	.
.	.	.	4A/	.	.
=3	=3	=3	=3	=3	=3
2E\	0.r	0.r	4G/	0.r	0c
.	.	.	4F/	.	.
1F	.	.	2.A/	.	.
.	.	.	4G/	.	.
2E\	.	.	1G	.	.
1D	.	.	.	.	1d
.	.	.	2F/	.	.
=4	=4	=4	=4	=4	=4
0C	0.r	0c	0G	1r	0e
.	.	.	.	1r	.
1r	.	1d	1r	2.d\	2.f/
.	.	.	.	4e\	4e/
=5	=5	=5	=5	=5	=5
0.r	0.r	2B-\	0.r	4f\	4d/
.	.	.	.	4g\	4c/
.	.	1c	.	2.a\	2.e/
.	.	.	.	4g\	4d/
.	.	2B-\	.	1g	1d
.	.	1A	.	.	.
.	.	.	.	2f#i\	2c/
=6	=6	=6	=6	=6	=6
0.r	0G	0G	0B-	0g	0d
.	1E	1r	1c	1g	1r
=7	=7	=7	=7	=7	=7
0BB-	2.D/	0.r	0d	1.f	0.r
.	4E/	.	.	.	.
.	2F/	.	.	.	.
.	1G	.	.	4e\	.
.	.	.	.	4d\	.
1C	.	.	1e	2.c\	.
.	[2A/	.	.	.	.
.	.	.	.	4B-\	.
=8	=8	=8	=8	=8	=8
0D	2A/]	0.r	2.d\	2A/	0f
.	4B-\	.	.	2.d\	.
.	4A/	.	4c\	.	.
.	4B-\	.	4B-\	.	.
.	4c\	.	4A/	4c\	.
.	2.d\	.	1B-	4B-\	.
.	.	.	.	4A/	.
1E	.	.	.	1G	1g
.	4c#i\	.	.	.	.
.	4c#i\	.	4A/	.	.
.	4Bni\	.	4G/	.	.
=9	=9	=9	=9	=9	=9
0D	0d	0F	2F/	2r	0a
.	.	.	2.f\	1F	.
.	.	.	4e\	.	.
.	.	.	1d	2.f\	.
1G	1r	1G	.	.	1b-
.	.	.	.	4e\	.
.	.	.	4c\	4e\	.
.	.	.	4B-\	4d\	.
=10	=10	=10	=10	=10	=10
2.F\	0.r	0A	2c\	0f	2.a/
.	.	.	2c\	.	.
4E\	.	.	.	.	4g/
4D\	.	.	0d	.	4f/
4C/	.	.	.	.	4e/
1D	.	.	.	.	1f
.	.	1B-	.	1d	.
4C/	.	.	.	.	4e/
4BB-/	.	.	.	.	4d/
=11	=11	=11	=11	=11	=11
0F	2.c\	0A	0.r	2r	2c/
.	.	.	.	1c	2.cc\
.	4B-\	.	.	.	.
.	4A/	.	.	.	.
.	4G/	.	.	.	4b-\
.	1F	.	.	2c\	1a
1G	.	1d	.	2.B-\	.
.	4E/	.	.	.	4g/
.	4D/	.	.	4A/	4f/
=12	=12	=12	=12	=12	=12
1G	2E/	2.c\	1r	1G	2g/
.	2C/	.	.	.	2g/
.	.	4B-\	.	.	.
0D	2r	4A/	0F	1F	0a
.	.	4G/	.	.	.
.	1F	1A	.	.	.
.	.	.	.	2r	.
.	4E/	4G/	.	[2f\	.
.	4D/	4F/	.	.	.
=13	=13	=13	=13	=13	=13
1r	1C	0c	1G	4f\]	0.r
.	.	.	.	4e\	.
.	.	.	.	4e\	.
.	.	.	.	4d\	.
0F	1F	.	0A	0f	.
.	1D	1d	.	.	.
=14	=14	=14	=14	=14	=14
1G	0.r	1d	1B-	1r	1r
0F	.	0A	0A	0f	0c
=15	=15	=15	=15	=15	=15
1D	1r	1r	1F	1f	1d
1C	1r	0c	0G	2e\	0e
.	.	.	.	2.c\	.
1E	1C	.	.	.	.
.	.	.	.	4B-\	.
.	.	.	.	2G/	.
=16	=16	=16	=16	=16	=16
1D	2F/	1d	0.r	2.A/	1f
.	2D/	.	.	.	.
.	.	.	.	4B-\	.
1r	2E/	0c	.	4c\	0e
.	.	.	.	4d\	.
.	2C/	.	.	4e\	.
.	.	.	.	4f\	.
1r	1C	.	.	4g\	.
.	.	.	.	4a\	.
.	.	.	.	[2g\	.
=17	=17	=17	=17	=17	=17
0.r	1r	1A	0.r	2g\]	1c
.	.	.	.	2f#i\	.
.	1r	1G	.	1g	0d
.	1G	1B-	.	2r	.
.	.	.	.	2d\	.
=18	=18	=18	=18	=18	=18
0.r	2.D/	1A	0F	2.f\	0.r
.	4E/	.	.	8e\L	.
.	.	.	.	8d\J	.
.	2F/	1r	.	2c\	.
.	2D/	.	.	1d	.
.	1E	1r	1G	.	.
.	.	.	.	2c#i\	.
=19	=19	=19	=19	=19	=19
0F	0D	0.r	0A	0.d	0.r
1G	1r	.	2.B-\	.	.
.	.	.	4A/	.	.
=20	=20	=20	=20	=20	=20
2E\	0.r	0.r	4G/	0.r	0c
.	.	.	4F/	.	.
1F	.	.	2.A/	.	.
.	.	.	4G/	.	.
2E\	.	.	1G	.	.
1D	.	.	.	.	1d
.	.	.	2F#i/	.	.
=21	=21	=21	=21	=21	=21
0C	0.r	0c	0G	1r	0e
.	.	.	.	1r	.
1r	.	1d	1r	2.d\	2.f/
.	.	.	.	4e\	4e/
=22	=22	=22	=22	=22	=22
0.r	0.r	2B-\	0.r	4f\	4d/
.	.	.	.	4g\	4c/
.	.	1c	.	2.a\	2.e/
.	.	.	.	4g\	4d/
.	.	2B-\	.	1g	1d
.	.	1A	.	.	.
.	.	.	.	2f#i\	2c/
=23	=23	=23	=23	=23	=23
0.r	0G	0G	0B-	0g	0d
.	1E	1r	1c	1g	1r
=24	=24	=24	=24	=24	=24
0BB-	2.D/	0.r	0d	1.f	0.r
.	4E/	.	.	.	.
.	2F/	.	.	.	.
.	1G	.	.	4e\	.
.	.	.	.	4d\	.
1C	.	.	1e	2.c\	.
.	[2A/	.	.	.	.
.	.	.	.	4B-\	.
=25	=25	=25	=25	=25	=25
0D	2A/]	0.r	2.d\	2A/	0f
.	4B-\	.	.	2.d\	.
.	4A/	.	4c\	.	.
.	4B-\	.	4B-\	.	.
.	4c\	.	4A/	4c\	.
.	2.d\	.	1B-	4B-\	.
.	.	.	.	4A/	.
1E	.	.	.	1G	1g
.	4c#i\	.	.	.	.
.	4c#i\	.	4A/	.	.
.	4Bni\	.	4G/	.	.
=26	=26	=26	=26	=26	=26
0D	0d	0F	2F/	2r	0a
.	.	.	2.f\	1F	.
.	.	.	4e\	.	.
.	.	.	1d	2.f\	.
1G	1r	1G	.	.	1b-
.	.	.	.	4e\	.
.	.	.	4c\	4e\	.
.	.	.	4B-\	4d\	.
=27	=27	=27	=27	=27	=27
2.F\	0.r	0A	2c\	0f	2.a/
.	.	.	2c\	.	.
4E\	.	.	.	.	4g/
4D\	.	.	0d	.	4f/
4C/	.	.	.	.	4e/
1D	.	.	.	.	1f
.	.	1B-	.	1d	.
4C/	.	.	.	.	4e/
4BB-/	.	.	.	.	4d/
=28	=28	=28	=28	=28	=28
0F	2.c\	0A	0.r	2r	2c/
.	.	.	.	1c	2.cc\
.	4B-\	.	.	.	.
.	4A/	.	.	.	.
.	4G/	.	.	.	4b-\
.	1F	.	.	2c\	1a
1G	.	1d	.	2.B-\	.
.	4E/	.	.	.	4g/
.	4D/	.	.	4A/	4f/
=29	=29	=29	=29	=29	=29
1G	2E/	2.c\	1r	1G	2g/
.	2C/	.	.	.	2g/
.	.	4B-\	.	.	.
0D	2r	4A/	0F	1F	0a
.	.	4G/	.	.	.
.	1F	1A	.	.	.
.	.	.	.	2r	.
.	4E/	4G/	.	[2f\	.
.	4D/	4F/	.	.	.
=30	=30	=30	=30	=30	=30
1r	1C	0c	1G	4f\]	0.r
.	.	.	.	4e\	.
.	.	.	.	4e\	.
.	.	.	.	4d\	.
0F	1F	.	0A	0f	.
.	1D	1d	.	.	.
=31	=31	=31	=31	=31	=31
1G	0.r	1d	1B-	1r	1r
0F	.	0A	0A	0f	0c
=32	=32	=32	=32	=32	=32
1D	1r	1r	1F	1f	1d
1C	1r	0c	0G	2e\	0e
.	.	.	.	2.c\	.
1E	1C	.	.	.	.
.	.	.	.	4B-\	.
.	.	.	.	2G/	.
=33	=33	=33	=33	=33	=33
1D	2F/	1d	0.r	2.A/	1f
.	2D/	.	.	.	.
.	.	.	.	4B-\	.
1r	2E/	0c	.	4c\	0e
.	.	.	.	4d\	.
.	2C/	.	.	4e\	.
.	.	.	.	4f\	.
1r	1C	.	.	4g\	.
.	.	.	.	4a\	.
.	.	.	.	[2g\	.
=34	=34	=34	=34	=34	=34
0.r	1r	1A	0.r	2g\]	1c
.	.	.	.	2f#i\	.
.	1r	1G	.	1g	0d
.	1G	1B-	.	2r	.
.	.	.	.	2d\	.
=35	=35	=35	=35	=35	=35
0D	2.F/	1A	0d	1.f	0.r
.	4G/	.	.	.	.
.	2A/	1r	.	.	.
.	2B-\	.	.	4e\	.
.	.	.	.	4d\	.
1D	1A	1r	1f	[1d	.
=36	=36	=36	=36	=36	=36
1G	0G	0.r	0g	2d\]	0.r
.	.	.	.	2.e\	.
2C/	.	.	.	.	.
.	.	.	.	4d\	.
1G	.	.	.	1d	.
.	1G	.	1g	.	.
2E\	.	.	.	2c#i\	.
=37	=37	=37	=37	=37	=37
0D	1A	0A	1.f	2d\	0a
.	.	.	.	1a	.
.	1r	.	.	.	.
.	.	.	4e\	4g\	.
.	.	.	4d\	4f\	.
1r	1A	1A	1e	1e	1cc
=38	=38	=38	=38	=38	=38
0.r	1D	1d	1f	1d	0dd
.	0G	2G/	0g	1r	.
.	.	1d	.	.	.
.	.	.	.	2.d\	1dd
.	.	2B-\	.	.	.
.	.	.	.	4e\	.
=39	=39	=39	=39	=39	=39
0.r	1.A	0A	0.r	2f\	1.cc
.	.	.	.	1e	.
.	4G/	.	.	2f\	4b-\
.	4F/	.	.	.	4a/
.	1G	1r	.	1d	1b-
=40	=40	=40	=40	=40	=40
1r	1A	0.r	1f	2c\	1cc
.	.	.	.	2.A/	.
1F	0D	.	2d\	.	0dd
.	.	.	.	4G/	.
.	.	.	1f	2A/	.
2D\	.	.	.	2.F/	.
[2F\	.	.	4e\	.	.
.	.	.	4d\	4G/	.
=41	=41	=41	=41	=41	=41
2F\]	2r	0.r	1.c	4A/	0.r
.	.	.	.	4B-\	.
4E\	1A	.	.	4c\	.
4D\	.	.	.	4d\	.
2C/	.	.	.	4e\	.
.	.	.	.	4f\	.
1E-	2.G/	.	2.B-\	2.g\	.
.	4A/	.	4A/	4f\	.
2D\	2B-\	.	4G/	[2f\	.
.	.	.	4F/	.	.
=42	=42	=42	=42	=42	=42
1C	2c\	1r	1G	2f\]	1cc
.	2G/	.	.	2e\	.
1F	2A/	1c	1F	1f	2a/
.	2.F/	.	.	.	1cc
1r	.	2A/	1r	1r	.
.	4E/	.	.	.	.
.	2F/	[2c\	.	.	4b-\
.	.	.	.	.	4a/
=43	=43	=43	=43	=43	=43
0.r	1C	2c\]	1r	1r	1.g
.	.	4B-\	.	.	.
.	.	4A/	.	.	.
.	1r	2G/	1r	2r	.
.	.	1B-	.	2.d\	2.f/
.	1r	.	2r	.	.
.	.	.	.	4e\	4e/
.	.	2A/	[2c\	2f\	4d/
.	.	.	.	.	4c/
=44	=44	=44	=44	=44	=44
1G	0.r	1G	2c\]	1.g	1d
.	.	.	2B-\	.	.
2E\	.	1c	1c	.	1c
2C/	.	.	.	4f\	.
.	.	.	.	4e\	.
1G	.	1r	1d	2d\	1r
.	.	.	.	[2g\	.
=45	=45	=45	=45	=45	=45
2E\	0.r	0.r	1c	2g\]	1r
2F\	.	.	.	2f\	.
2G\	.	.	2B-\	2d\	1r
2.F\	.	.	2.c\	2.f\	.
.	.	.	.	.	2r
4G\	.	.	4B-\	4e\	.
2E\	.	.	4A/	2c\	[2g/
.	.	.	4G/	.	.
=46	=46	=46	=46	=46	=46
1D	0.r	1d	1A	1d	2g/]
.	.	.	.	.	2f/
1E-	.	2B-\	2G/	1r	1g
.	.	2G/	1G	.	.
1D	.	1d	.	2r	1a
.	.	.	2F#i/	[2d\	.
=47	=47	=47	=47	=47	=47
1GG	0.r	2B-\	1G	2d\]	1g
.	.	2c\	.	2e\	.
1r	.	2d\	1r	2f\	2f/
.	.	2.c\	.	2.e\	2.g/
1r	.	.	1r	.	.
.	.	4d\	.	4d\	4f/
.	.	2B-\	.	[2d\	4e/
.	.	.	.	.	4d/
=48	=48	=48	=48	=48	=48
0.r	0.r	1A	0.r	2d\]	1e
.	.	.	.	2c\	.
.	.	1B-	.	1d	2d/
.	.	.	.	.	1d
.	.	1A	.	1e	.
.	.	.	.	.	2c#i/
=49	=49	=49	=49	=49	=49
0D	0A	1D	0d	1d	1d
.	.	1r	.	1r	1r
1D	1A	1r	1f	1d	1r
=50	=50	=50	=50	=50	=50
1G	1.G	0.r	0g	2d\	0.r
.	.	.	.	2.e\	.
2C/	.	.	.	.	.
.	.	.	.	4d\	.
1G	2G/	.	.	1d	.
.	2G/	.	1g	.	.
2E\	2G/	.	.	2c#i\	.
=51	=51	=51	=51	=51	=51
0D	1A	0A	1.f	2d\	0a
.	.	.	.	1a	.
.	1r	.	.	.	.
.	.	.	4e\	4g\	.
.	.	.	4d\	4f\	.
1r	1A	1A	1e	1e	1cc
=52	=52	=52	=52	=52	=52
0.r	1D	1d	1f	1d	0dd
.	0G	2G/	0g	1r	.
.	.	1d	.	.	.
.	.	.	.	2.d\	1dd
.	.	2B-\	.	.	.
.	.	.	.	4e\	.
=53	=53	=53	=53	=53	=53
0.r	1.A	0A	0.r	2f\	1.cc
.	.	.	.	1e	.
.	4G/	.	.	2f\	4b-\
.	4F/	.	.	.	4a/
.	1G	1r	.	1d	1b-
=54	=54	=54	=54	=54	=54
1r	1A	0.r	1f	2c\	1cc
.	.	.	.	2.A/	.
1F	0D	.	2d\	.	0dd
.	.	.	.	4G/	.
.	.	.	1f	2A/	.
2D\	.	.	.	2.F/	.
[2F\	.	.	4e\	.	.
.	.	.	4d\	4G/	.
=55	=55	=55	=55	=55	=55
2F\]	2r	0.r	1.c	4A/	0.r
.	.	.	.	4B-\	.
4E\	1A	.	.	4c\	.
4D\	.	.	.	4d\	.
2C/	.	.	.	4e\	.
.	.	.	.	4f\	.
1E-	2.G/	.	2.B-\	2.g\	.
.	4A/	.	4A/	4f\	.
2D\	2B-\	.	4G/	[2f\	.
.	.	.	4F/	.	.
=56	=56	=56	=56	=56	=56
1C	2c\	1r	1G	2f\]	1cc
.	2G/	.	.	2e\	.
1F	2A/	1c	1F	1f	2a/
.	2.F/	.	.	.	1cc
1r	.	2A/	1r	1r	.
.	4E/	.	.	.	.
.	2F/	[2c\	.	.	4b-\
.	.	.	.	.	4a/
=57	=57	=57	=57	=57	=57
0.r	1C	2c\]	1r	1r	1.g
.	.	4B-\	.	.	.
.	.	4A/	.	.	.
.	1r	2G/	1r	2r	.
.	.	1B-	.	2.d\	2.f/
.	1r	.	2r	.	.
.	.	.	.	4e\	4e/
.	.	2A/	[2c\	2f\	2d/
=58	=58	=58	=58	=58	=58
1G	0.r	1G	2c\]	1.g	1d
.	.	.	2B-\	.	.
2E\	.	1c	1c	.	1c
2C/	.	.	.	4f\	.
.	.	.	.	4e\	.
1G	.	1r	1d	2d\	1r
.	.	.	.	[2g\	.
=59	=59	=59	=59	=59	=59
2E\	0.r	0.r	1c	4g\]	1r
.	.	.	.	4f\	.
2C/	.	.	.	2e\	.
2r	.	.	2B-\	2d\	1r
2.C/	.	.	2.c\	2.e\	.
.	.	.	.	.	2r
4D\	.	.	4B-\	4d\	.
2E-\	.	.	4A/	2c\	[2g/
.	.	.	4G/	.	.
=60	=60	=60	=60	=60	=60
1D	0.r	1d	1A	1d	2g/]
.	.	.	.	.	2f/
1E-i	.	2B-\	2G/	4G/	1g
.	.	.	.	4A/	.
.	.	2G/	1G	4B-\	.
.	.	.	.	4c\	.
1D	.	1d	.	4d\	1a
.	.	.	.	4e\	.
.	.	.	2F/	2f\	.
=61	=61	=61	=61	=61	=61
2.GG/	2.G/	2B-\	4G/	2e\	1g
.	.	.	4A/	.	.
.	.	2G/	4B-\	1d	.
4AA/	8F/L	.	4c\	.	.
.	8E/J	.	.	.	.
4BB-/	2D/	2r	2d\	.	2f/
4GG/	.	.	.	.	.
2C/	2E/	2.G/	1c	1G	2.g/
1GG	1D	.	.	.	.
.	.	4A/	.	.	4f/
.	.	2B-\	2B-\	2G/	4e/
.	.	.	.	.	4d/
=62	=62	=62	=62	=62	=62
1C	2r	1A	1c	2.E/	1e
.	2C/	.	.	.	.
.	.	.	.	4F/	.
2r	2.D/	1B-	1r	4G/	2d/
.	.	.	.	4A/	.
2GG/	.	.	.	2B-\	1d
.	4E/	.	.	.	.
1AA	2F/	1A	2r	2c\	.
.	2E/	.	2A/	2A/	2c/
=63	=63	=63	=63	=63	=63
1GG	2G/	2.D/	2B-\	0d	4d/
.	.	.	.	.	4e/
.	1D	.	2.d\	.	4f/
.	.	4E/	.	.	4g/
2r	.	4F/	.	.	2a/
.	.	4D/	4c\	.	.
2GG/	2D/	2G/	2B-\	.	1g
2.D\	2.F/	1D	1A	2r	.
.	.	.	.	[2d\	2f#i/
4C/	4E/	.	.	.	.
=64	=64	=64	=64	=64	=64
4BB-/	2D/	1G	[0.Gl	2d\]	[0.gl
4GG/	.	.	.	.	.
1C	2E/	.	.	2c\	.
.	1D	2r	.	2d\	.
2BB-/	.	2D/	.	2.G/	.
1C	1C	1E	.	.	.
.	.	.	.	4A/	.
.	.	.	.	4B-\	.
.	.	.	.	4c\	.
=65	=65	=65	=65	=65	=65
0.GGl	0.Gl	0.Dl	0.G]	0.dl	0.g]
!!LO:LB:i:g=z
=66||	=66||	=66||	=66||	=66||	=66||
*>B	*>B	*>B	*>B	*>B	*>B
!!section: O lux beatissima
!!!OMD: O lux beatissima
*M2/1	*M2/1	*M2/1	*M2/1	*M2/1	*M2/1
*met(C|)	*met(C|)	*met(C|)	*met(C|)	*met(C|)	*met(C|)
1.G	1G	0r	0r	0r	0r
.	1B-	.	.	.	.
2G\	.	.	.	.	.
=67	=67	=67	=67	=67	=67
1F	2.A/	0r	0r	0r	0r
.	4B-\	.	.	.	.
1F	2c\	.	.	.	.
.	[2d\	.	.	.	.
=68	=68	=68	=68	=68	=68
1G	4d\]	0r	1.g	0r	0r
.	4c\	.	.	.	.
.	4B-\	.	.	.	.
.	4A/	.	.	.	.
1E	1G	.	.	.	.
.	.	.	2g\	.	.
=69	=69	=69	=69	=69	=69
0D	0A	1.d	1f	0r	0r
.	.	.	1f	.	.
.	.	2d\	.	.	.
=70	=70	=70	=70	=70	=70
0r	0r	1c	1g	1.g	0r
.	.	1c	1e	.	.
.	.	.	.	2g\	.
=71	=71	=71	=71	=71	=71
0r	0r	1d	0d	1f	1.dd
.	.	1B-	.	1g	.
.	.	.	.	.	2dd\
=72	=72	=72	=72	=72	=72
0r	0r	0A	0r	2.a\	1cc
.	.	.	.	4g\	.
.	.	.	.	2f\	1cc
.	.	.	.	2e\	.
=73	=73	=73	=73	=73	=73
1G	1G	0r	1B-	1d	1dd
1G	1G	.	1G	2r	1b-
.	.	.	.	2d\	.
=74	=74	=74	=74	=74	=74
1D	1A	0r	2.F/	1.f	0a
.	.	.	4G/	.	.
[1F	2D/	.	4A/	.	.
.	.	.	4B-\	.	.
.	[2A/	.	[2c\	4e\	.
.	.	.	.	4d\	.
=75	=75	=75	=75	=75	=75
2F\]	4A/]	0r	4c\]	2c\	0r
.	4G/	.	4B-\	.	.
4E\	1F	.	1B-	2d\	.
4D\	.	.	.	.	.
1C	.	.	.	1e	.
.	2E/	.	2A/	.	.
=76	=76	=76	=76	=76	=76
0BB-	0F	1d	0B-	0d	1f
.	.	1d	.	.	1d
=77	=77	=77	=77	=77	=77
0r	1F	1A	0r	0r	2.c/
.	.	.	.	.	4d/
.	[1C	[1c	.	.	4e/
.	.	.	.	.	4f/
.	.	.	.	.	[2g/
=78	=78	=78	=78	=78	=78
0r	1C]	2c\]	1c	0r	4g/]
.	.	.	.	.	4f/
.	.	4B-\	.	.	1f
.	.	4A/	.	.	.
.	1C	1G	1c	.	.
.	.	.	.	.	2e/
=79	=79	=79	=79	=79	=79
1.BB-	0F	0F	1.d	2.d\	0f
.	.	.	.	4e\	.
.	.	.	.	4f\	.
.	.	.	.	4g\	.
2C/	.	.	2c\	[2a\	.
=80	=80	=80	=80	=80	=80
2D\	0r	0r	2B-\	4a\]	0r
.	.	.	.	4g\	.
2E-i\	.	.	4A/	1g	.
.	.	.	4G/	.	.
2D\	.	.	1A	.	.
2D\	.	.	.	2f#i\	.
=81	=81	=81	=81	=81	=81
0G	0r	0r	0G	1g	1g
.	.	.	.	2d\	1g
.	.	.	.	2e\	.
=82	=82	=82	=82	=82	=82
0r	0r	1.F	0r	1.f	1.a
.	.	2G/	.	[2e\	2g/
=83	=83	=83	=83	=83	=83
0r	0r	2A/	0r	4e\]	2f/
.	.	.	.	4d\	.
.	.	2B-\	.	1d	4e/
.	.	.	.	.	4d/
.	.	2A/	.	.	1e
.	.	2A/	.	2c#i\	.
=84	=84	=84	=84	=84	=84
1.G	1G	0d	0r	0d	0d
.	1B-	.	.	.	.
2G\	.	.	.	.	.
=85	=85	=85	=85	=85	=85
1F	2.A/	0r	0r	0r	0r
.	4B-\	.	.	.	.
1F	2c\	.	.	.	.
.	[2d\	.	.	.	.
=86	=86	=86	=86	=86	=86
1G	4d\]	0r	1.g	0r	0r
.	4c\	.	.	.	.
.	4B-\	.	.	.	.
.	4A/	.	.	.	.
1E	1G	.	.	.	.
.	.	.	2g\	.	.
=87	=87	=87	=87	=87	=87
0D	0A	1.d	1f	0r	0r
.	.	.	1f	.	.
.	.	2d\	.	.	.
=88	=88	=88	=88	=88	=88
0r	0r	1c	1g	1.g	0r
.	.	1c	1e	.	.
.	.	.	.	2g\	.
=89	=89	=89	=89	=89	=89
0r	0r	1d	0d	1f	1.dd
.	.	1B-	.	1g	.
.	.	.	.	.	2dd\
=90	=90	=90	=90	=90	=90
0r	0r	0A	0r	2.a\	1cc
.	.	.	.	4g\	.
.	.	.	.	2f\	1cc
.	.	.	.	2e\	.
=91	=91	=91	=91	=91	=91
1G	1G	0r	1B-	1d	1dd
1G	1G	.	1G	2r	1b-
.	.	.	.	2d\	.
=92	=92	=92	=92	=92	=92
1D	1A	0r	2.F/	1.f	0a
.	.	.	4G/	.	.
[1F	2D/	.	4A/	.	.
.	.	.	4B-\	.	.
.	[2A/	.	[2c\	4e\	.
.	.	.	.	4d\	.
=93	=93	=93	=93	=93	=93
2F\]	4A/]	0r	4c\]	2c\	0r
.	4G/	.	4B-\	.	.
4E\	1F	.	1B-	2d\	.
4D\	.	.	.	.	.
1C	.	.	.	1e	.
.	2E/	.	2A/	.	.
=94	=94	=94	=94	=94	=94
0BB-	[0F	1d	0B-	0d	1f
.	.	1d	.	.	1d
=95	=95	=95	=95	=95	=95
0r	1F]	1A	0r	0r	2.c/
.	.	.	.	.	4d/
.	[1C	[1c	.	.	4e/
.	.	.	.	.	4f/
.	.	.	.	.	[2g/
=96	=96	=96	=96	=96	=96
0r	0C]	2c\]	1c	0r	4g/]
.	.	.	.	.	4f/
.	.	4B-\	.	.	1f
.	.	4A/	.	.	.
.	.	1G	1c	.	.
.	.	.	.	.	2e/
=97	=97	=97	=97	=97	=97
1.BB-	0F	0F	1.d	2.d\	0f
.	.	.	.	4e\	.
.	.	.	.	4f\	.
.	.	.	.	4g\	.
2C/	.	.	2c\	[2a\	.
=98	=98	=98	=98	=98	=98
2D\	0r	0r	2B-\	4a\]	0r
.	.	.	.	4g\	.
2E-i\	.	.	4A/	1g	.
.	.	.	4G/	.	.
2D\	.	.	2A/	.	.
2D\	.	.	2A/	2f#i\	.
=99	=99	=99	=99	=99	=99
0GG	0r	0r	0G	1g	1g
.	.	.	.	2d\	1g
.	.	.	.	2e\	.
=100	=100	=100	=100	=100	=100
0r	0r	1.F	0r	1.f	1.a
.	.	2G/	.	[2e\	2g/
=101	=101	=101	=101	=101	=101
0r	0r	2A/	0r	4e\]	2f/
.	.	.	.	4d\	.
.	.	2B-\	.	1d	4e/
.	.	.	.	.	4d/
.	.	2A/	.	.	2e/
.	.	2A/	.	2c#i\	2e/
=102	=102	=102	=102	=102	=102
*M3/1	*M3/1	*	*	*M3/1	*
*met(3/2)	*met(3/2)	*	*	*met(3/2)	*
!	!	!LO:N:vis=1	!	!	!LO:N:vis=1
0F	0A	0.D	0.r	0.d	0.d
1F	1A	.	.	.	.
=103	=103	=103	=103	=103	=103
!	!	!LO:N:vis=1	!	!	!
0E-	0G	0.r	0.r	0.r	0.r
1E-i	1G	.	.	.	.
=104	=104	=104	=104	=104	=104
*	*	*	*M3/1	*	*
*	*	*	*met(3/2)	*	*
1.F	1.A	0.r	0f	0c	0.r
2E-i\	2G/	.	.	.	.
1D	1F	.	1f	1B-	.
=105	=105	=105	=105	=105	=105
*	*	*M3/1	*	*	*
*	*	*met(3/2)	*	*	*
0.C	0.G	0c	0e-	0c	0.r
.	.	1c	1e-i	1c	.
=106	=106	=106	=106	=106	=106
0.r	0.r	0B-	1.f	0d	0.r
.	.	.	2e-i\	.	.
.	.	1B-	1d	1d	.
=107	=107	=107	=107	=107	=107
*	*	*	*	*	*M3/1
*	*	*	*	*	*met(3/2)
0.r	0.r	1.c	0c	1.e-i	0cc
.	.	2B-\	.	2d\	.
.	.	1A	1r	2e-i\	1cc
.	.	.	.	2f\	.
=108	=108	=108	=108	=108	=108
0G	0.r	0.G	0d	0.g	0b-
1G	.	.	1G	.	1b-
=109	=109	=109	=109	=109	=109
1.A	0.r	0.r	0c	0.r	1.cc
2G\	.	.	.	.	2b-\
1F	.	.	1d	.	1a
=110	=110	=110	=110	=110	=110
1G	0G	0.r	1G	0.r	0g
0E	.	.	1.c	.	.
.	1G	.	.	.	1r
.	.	.	2B-\	.	.
=111	=111	=111	=111	=111	=111
1F	0A	0d	2A/	0.r	0a
.	.	.	2G/	.	.
0D	.	.	1.F	.	.
.	1B-	1d	.	.	1d
.	.	.	2E/	.	.
=112	=112	=112	=112	=112	=112
0C	1.c	1.e	0G	1.c	0g
.	2B-\	2d\	.	2d\	.
1r	1A	1c	1r	1e	1a
=113	=113	=113	=113	=113	=113
0.r	1F	1d	0.r	1f	1d
.	0G	0B-	.	0d	1.g
.	.	.	.	.	2f/
=114	=114	=114	=114	=114	=114
0.r	0.r	1c	0.r	1.g	2e/
.	.	.	.	.	2d/
.	.	0A	.	.	1.c
.	.	.	.	4f#i\	.
.	.	.	.	4e\	.
.	.	.	.	1f#i	.
.	.	.	.	.	2B-/
=115	=115	=115	=115	=115	=115
0G	0.r	0G	0B-	0.g	0d
1E	.	1r	1c	.	1r
=116	=116	=116	=116	=116	=116
1D	1.A	0.r	0d	0.r	0.r
1.F	.	.	.	.	.
.	2B-\	.	.	.	.
.	1c	.	1c	.	.
2E\	.	.	.	.	.
=117	=117	=117	=117	=117	=117
1.D	0d	0.r	1.f	0.r	0.r
2BB-/	.	.	4e\	.	.
.	.	.	4d\	.	.
1C	1c	.	1e	.	.
=118	=118	=118	=118	=118	=118
0D	0A	0d	0d	0.r	0f
1r	1G	1B-	1r	.	1g
=119	=119	=119	=119	=119	=119
0.r	0F	1A	0.r	0.r	0a
.	.	1.c	.	.	.
.	1E	.	.	.	1g
.	.	2B-\	.	.	.
=120	=120	=120	=120	=120	=120
0.r	0F	1.A	0.r	0.r	1.cc
.	.	2F/	.	.	4b-\
.	.	.	.	.	4a/
.	1r	1G	.	.	1b-
=121	=121	=121	=121	=121	=121
0F	0D	0A	0.r	0.r	0a
1F	1D	1r	.	.	1r
=122	=122	=122	=122	=122	=122
0E-	0G	0.r	0.r	0.r	0.r
1E-i	1G	.	.	.	.
=123	=123	=123	=123	=123	=123
1.F	1.A	0.r	0f	0c	0.r
2E-i\	2G/	.	.	.	.
1D	1F	.	1f	1B-	.
=124	=124	=124	=124	=124	=124
0.C	0.G	0c	0e-	0c	0.r
.	.	1c	1e-i	1c	.
=125	=125	=125	=125	=125	=125
0.r	0.r	0B-	1.f	0d	0.r
.	.	.	2e-i\	.	.
.	.	1B-	1d	1d	.
=126	=126	=126	=126	=126	=126
0.r	0.r	1.c	0c	1.e-i	0cc
.	.	2B-\	.	2d\	.
.	.	1A	1r	2e-i\	1cc
.	.	.	.	2f\	.
=127	=127	=127	=127	=127	=127
0G	0.r	0.G	0d	0.g	0b-
1G	.	.	1G	.	1b-
=128	=128	=128	=128	=128	=128
1.A	0.r	0.r	0c	0.r	1.cc
2G\	.	.	.	.	2b-\
1F	.	.	1d	.	1a
=129	=129	=129	=129	=129	=129
1G	0G	0.r	1G	0.r	0g
0E	.	.	1.c	.	.
.	1G	.	.	.	1r
.	.	.	2B-\	.	.
=130	=130	=130	=130	=130	=130
1F	0A	0d	2A/	0.r	0a
.	.	.	2G/	.	.
0D	.	.	1.F	.	.
.	1B-	1d	.	.	1d
.	.	.	2E/	.	.
=131	=131	=131	=131	=131	=131
0C	1.c	1.e	0G	1.c	0g
.	2B-\	2d\	.	2d\	.
1r	1A	1c	1r	1e	1a
=132	=132	=132	=132	=132	=132
0.r	1F	1d	0.r	1f	1d
.	0G	0B-	.	0d	1.g
.	.	.	.	.	2f/
=133	=133	=133	=133	=133	=133
0.r	0.r	1c	0.r	1.g	2e/
.	.	.	.	.	2d/
.	.	0A	.	.	1.c
.	.	.	.	4f#i\	.
.	.	.	.	4e\	.
.	.	.	.	1f#i	.
.	.	.	.	.	2B-/
=134	=134	=134	=134	=134	=134
0G	0.r	0G	0B-	0.g	0d
1E	.	1r	1c	.	1r
=135	=135	=135	=135	=135	=135
1D	1.A	0.r	0d	0.r	0.r
1.F	.	.	.	.	.
.	2B-\	.	.	.	.
.	1c	.	1c	.	.
2E\	.	.	.	.	.
=136	=136	=136	=136	=136	=136
1.D	0d	0.r	1.f	0.r	0.r
2BB-/	.	.	4e\	.	.
.	.	.	4d\	.	.
1C	1c	.	1e	.	.
=137	=137	=137	=137	=137	=137
0D	0A	0d	0d	0.r	0f
1r	1G	1B-	1r	.	1g
=138	=138	=138	=138	=138	=138
0.r	0F	1A	0.r	0.r	0a
.	.	1.c	.	.	.
.	1E	.	.	.	1g
.	.	2B-\	.	.	.
=139	=139	=139	=139	=139	=139
0.r	0F	1.A	0.r	0.r	1.cc
.	.	2F/	.	.	4b-\
.	.	.	.	.	4a/
.	1r	1G	.	.	1b-
=140	=140	=140	=140	=140	=140
*	*M2/1	*	*	*	*
*	*met(C|)	*	*	*	*
0r	1.c	3%2A	0r	0r	3%4a
.	.	3%4r	.	.	.
.	.	.	.	.	3%2r
.	2c\	.	.	.	.
=141	=141	=141	=141	=141	=141
*M2/1	*	*	*M2/1	*M2/1	*
*met(C|)	*	*	*met(C|)	*met(C|)	*
1.G	1.d	0r	1.g	0r	0r
2G\	[2e\	.	2g\	.	.
=142	=142	=142	=142	=142	=142
1.A	2e\]	0r	2.c\	0r	0r
.	1c	.	.	.	.
.	.	.	4d\	.	.
.	.	.	2e\	.	.
2F\	4B-\	.	2f\	.	.
.	4A/	.	.	.	.
=143	=143	=143	=143	=143	=143
1G	1B-	0r	2e\	0r	0r
.	.	.	1d	.	.
1E	1G	.	.	.	.
.	.	.	2c#i\	.	.
=144	=144	=144	=144	=144	=144
*	*	*M2/1	*	*	*M2/1
*	*	*met(C|)	*	*	*met(C|)
0D	1A	1.d	0d	0r	1.dd
.	1F	.	.	.	.
.	.	2d\	.	.	2dd\
=145	=145	=145	=145	=145	=145
0r	2.E/	1.e	0r	0r	2.g/
.	4F/	.	.	.	4a/
.	2G/	.	.	.	2b-\
.	2A/	2c\	.	.	2cc\
=146	=146	=146	=146	=146	=146
0r	2G/	1d	0r	0r	2b-\
.	2F/	.	.	.	1a
.	1G	1B-	.	.	.
.	.	.	.	.	2g/
=147	=147	=147	=147	=147	=147
1D	1F	0A	1d	0r	0a
2C/	2r	.	2e\	.	.
[2F\	[2A/	.	[2d\	.	.
=148	=148	=148	=148	=148	=148
2F\]	2A/]	0r	2d\]	0r	0r
2E\	2G/	.	2c\	.	.
2D\	2F/	.	2B-\	.	.
2C/	2E/	.	2A/	.	.
=149	=149	=149	=149	=149	=149
0BB-	2F/	0r	0B-	0d	0r
.	2F/	.	.	.	.
.	[1D	.	.	.	.
=150	=150	=150	=150	=150	=150
0r	1D]	1A	0r	1d	1a
.	1r	2G/	.	2d\	2b-\
.	.	[2c\	.	[2e-i\	[2a/
=151	=151	=151	=151	=151	=151
0r	0r	2c\]	0r	2e-\]	2a/]
.	.	2B-\	.	2d\	2g/
.	.	2A/	.	2c\	2f/
.	.	2G/	.	2B-\	2e/
=152	=152	=152	=152	=152	=152
1.F	1r	0F	1A	1c	0f
.	[1A	.	1c	[1f	.
2F\	.	.	.	.	.
=153	=153	=153	=153	=153	=153
1.D	2A/]	0r	1.d	2f\]	0r
.	2A/	.	.	2f\	.
.	2A/	.	.	2f\	.
2BB-/	2B-\	.	2d\	2d\	.
=154	=154	=154	=154	=154	=154
2C/	1G	0r	4c\	2e\	0r
.	.	.	4B-\	.	.
2E\	.	.	4A/	1g	.
.	.	.	4G/	.	.
1D	1d	.	2A/	.	.
.	.	.	2A/	2f#i\	.
=155	=155	=155	=155	=155	=155
2E\	0G	1.c	2G/	0g	1e
2.C/	.	.	1g	.	.
.	.	.	.	.	1g
4D\	.	.	.	.	.
2E\	.	2c\	2g\	.	.
=156	=156	=156	=156	=156	=156
2F\	0r	1.A	2.c\	0r	1.a
4E\	.	.	.	.	.
4D\	.	.	4d\	.	.
2C/	.	.	2e\	.	.
2D\	.	2F/	2f\	.	2a/
=157	=157	=157	=157	=157	=157
2C/	0r	2G/	2e\	0r	4g/
.	.	.	.	.	4f/
2BB-/	.	2B-\	1d	.	4e/
.	.	.	.	.	4d/
1C	.	1A	.	.	2e/
.	.	.	2c\	.	2e/
=158	=158	=158	=158	=158	=158
1GG	0d	2B-\	0d	0r	2d/
.	.	2.G/	.	.	1dd
1r	.	.	.	.	.
.	.	4A/	.	.	.
.	.	2B-\	.	.	2dd\
=159	=159	=159	=159	=159	=159
0r	1.e-i	2c\	0r	0r	2.g/
.	.	4B-\	.	.	.
.	.	4A/	.	.	4a/
.	.	2G/	.	.	2b-\
.	2c\	2A/	.	.	2cc\
=160	=160	=160	=160	=160	=160
0r	2d\	2G/	0r	0r	2b-\
.	2A/	2F/	.	.	1a
.	1B-	1G	.	.	.
.	.	.	.	.	2g/
=161	=161	=161	=161	=161	=161
1D	1A	1D	1d	0r	0a
2C/	2r	1r	2e\	.	.
[2F\	[2A/	.	[2d\	.	.
=162	=162	=162	=162	=162	=162
2F\]	2A/]	0r	2d\]	0r	0r
2E\	2G/	.	2c\	.	.
2D\	2F/	.	2B-\	.	.
2C/	2E/	.	2A/	.	.
=163	=163	=163	=163	=163	=163
0BB-	2F/	0r	0B-	0d	0r
.	2F/	.	.	.	.
.	[1D	.	.	.	.
=164	=164	=164	=164	=164	=164
0r	1D]	1A	0r	1d	1a
.	1r	2G/	.	2d\	2b-\
.	.	[2c\	.	[2e-i\	[2a/
=165	=165	=165	=165	=165	=165
0r	0r	2c\]	0r	2e-\]	2a/]
.	.	2B-\	.	2d\	2g/
.	.	2A/	.	2c\	2f/
.	.	2G/	.	2B-\	2e/
=166	=166	=166	=166	=166	=166
0r	1r	0F	1A	1c	0f
.	[1A	.	1c	[1f	.
=167	=167	=167	=167	=167	=167
1.D	2A/]	0r	1.d	2f\]	0r
.	2A/	.	.	2f\	.
.	2A/	.	.	2f\	.
2BB-/	2B-\	.	2d\	2d\	.
=168	=168	=168	=168	=168	=168
2C/	1G	0r	4c\	2e\	0r
.	.	.	4B-\	.	.
2E\	.	.	4A/	1g	.
.	.	.	4G/	.	.
1D	1d	.	1A	.	.
.	.	.	.	2f\	.
=169	=169	=169	=169	=169	=169
2E\	2B-\	0r	2G/	1g	1e
2C/	2c\	.	1c	.	.
1G	1G	.	.	1e	1g
.	.	.	2B-\	.	.
=170	=170	=170	=170	=170	=170
0F	1c	1.A	1.c	1.f	1.a
.	1r	.	.	.	.
.	.	2F/	4B-\	2e\	2a/
.	.	.	4A/	.	.
=171	=171	=171	=171	=171	=171
0r	0r	2G/	1B-	1d	4g/
.	.	.	.	.	4f/
.	.	2B-\	.	.	4e/
.	.	.	.	.	4d/
.	.	1A	1c	1c	1e
=172	=172	=172	=172	=172	=172
1r	1G	2B-\	2d\	1r	2d/
.	.	2G/	4c\	.	1g
.	.	.	4B-\	.	.
1D	2D/	1d	1A	1d	.
.	2F/	.	.	.	2f/
=173	=173	=173	=173	=173	=173
1G	1E	0c	0G	1e	1.g
1E	1G	.	.	1c	.
.	.	.	.	.	4f/
.	.	.	.	.	4e/
=174	=174	=174	=174	=174	=174
[0D	[0F	0r	[0A	[0d	[0f
=175	=175	=175	=175	=175	=175
0D]	0F]	1r	0A]	0d]	0f]
.	.	1A	.	.	.
=176	=176	=176	=176	=176	=176
[0GGl	[0Dl	0d	[0Gl	1d	[0gl
.	.	.	.	[1dl	.
=177	=177	=177	=177	=177	=177
0GG]	0D]	0B-l	0G]	0d]	0g]
==	==	==	==	==	==
*-	*-	*-	*-	*-	*-
!!!RDF**kern: l=long note in original notation
!!!RDF**kern: i=editorial accidental
!!!ENC:	Will Watson 12/09/2011
!!!END:	2011/09/12/
!!!EED:	Jesse Rodin
!!!EEV:	2011/10/07/
!!attribution-level@Jos: 4 (questionable)
!!!ONB:	Translated from MusicXML and edited on 2011/10/07/ by Craig Sapp
!!muse2ps: C^@{COA}?\n@{SCT}^i2I150v95,95,95,95,95,130Q16
